X:609
T:Reel 609
M:4/4
K:Emin
L:1/8
BA|G>E (3EDE B>E (3EDE |G>E (3E^DE B>E (3EEE |F>DDD DDdDDd|AFDF AcBA|| (3EEE BE GFEG|EFDE DEFA|Beed efg2|fdd^c d2 (3Fdd |efe^d efgf|edcA B2GF|EFGA BcdB|AFDF EFGA| (3Bcd BA GEEF| (3EFG AF DFFA|
